X:10
T:Nous te louons, Dieu Crateur - D51
C:R.Jef
M:3/4
L:1/4
K:C
CEF|G2G|(FG)A|G3|GcB|A2G|(AE)F|G||CDE|F2G|(ED)C|D3|EGF|(ED)E|(CA,)B,|C3||
